X:263
%%etbk:tnset id:79,pos:3,rep:3x,ant:
%%etbk:wsite http://www.thesession.org/tunes/display/1634
%%etbk:pldat 2014-09-26T18:20,2014-05-20T16:26,2014-05-01T18:25,2014-02-16T16:00,2013-12-11T17:20,2013-11-19T15:34,2013-11-16T16:28,2013-05-01T15:36,2013-04-30T15:44
T: Lark On The Strand, The
Z: Piano Box Version by Martin Fleischmann
H: Created 2013-02-19 /  Last Modified 2014-11-18
M: 6/8
L: 1/8
R: jig
K: Gmaj
|: "D"!2!A3 {c}AGA | "G"!3!B!1!G!2!E !1!G2G | !2!ABA !1!G!3!B!4!d | "C"!5!eGe {g}e!4!d!3!B |
"D"!1!A3 {c}!2!AGA | "G"!3!B!1!G!2!E !1!G !3!(3G!2!G!1!G | !1!GBA GAB | !4!dBG !3!BdB :|
|: "G"!1!G!2!B!3!d !5!g2!3!g | !3!gba !3!ggg | !1!G!2!B!3!d !5!g2!3!d | "C"!4!e2e {g}e!3!d!2!B |
"G"!1!G!2!B!3!d !5!g!1!G!5!g | !3!gba !3!ggg | "D"!4!aba age | {g}!2!edg e!1!d!2!B :|


